X: 0663
T: 'TWILL NEBBER DO TO GIB IT UP SO!
B: Oliver Ditson "The Boston Collection of Instrumental Music" 1910 p.66 #3
F: http://conquest.imslp.info/files/imglnks/usimg/8/8f/IMSLP175643-PMLP309456-bostoncollection00bost_bw.pdf
M: 2/4
L: 1/16
K: D
d2 |\
e2e2 f2f2 | e2f2 a3a | e2e2 f2f2 | ecdB A3 d |\
e2e2 f2ff | e2f2 a2f2 | g2f2 e2dd | f2e2 d2fa |
gefd edB2 | e6 fa | gefd edB2 | d6 fa |\
gefd edB2 | dgfd Hg2fe | defd ecdB | A6 |]
de |\
fdfd edBA | defg a2fa | gabd' c'd'e'c' | d'4 z2 |]

%%text page 67: MISSING PAGES 67-70

%%text page 68: MISSING PAGES 67-70

%%text page 69: MISSING PAGES 67-70

%%text page 70: MISSING PAGES 67-70

%%sep 1 1 500
%%sep 1 1 500
